icons/sz.svg

<?xml version="1.0" ?>
<svg xmlns="http://www.w3.org/2000/svg" xmlns:ev="http://www.w3.org/2001/xml-events" xmlns:xlink="http://www.w3.org/1999/xlink" baseProfile="full" height="600px" version="1.1" viewBox="521.3804991296687 -1029.0196749365903 9196.239001740663 12297.041090535771" width="449px">
	<defs/>
	<path d="M 4920.0,10182.0 L 4645.0,10125.0 L 4468.0,9910.0 L 4292.0,9695.0 L 3892.0,9420.0 L 3492.0,9146.0 L 3330.0,8710.0 L 3168.0,8275.0 L 3026.0,8030.0 C 2947.0,7895.0 2787.0,7619.0 2670.0,7417.0 C 2475.0,7079.0 2452.0,7044.0 2396.0,6995.0 C 2362.0,6966.0 2256.0,6875.0 2160.0,6793.0 C 1992.0,6650.0 1982.0,6640.0 1916.0,6535.0 C 1866.0,6454.0 1818.0,6395.0 1738.0,6314.0 L 1629.0,6203.0 L 1558.0,6014.0 C 1426.0,5661.0 1427.0,5663.0 1356.0,5105.0 L 1292.0,4605.0 L 1301.0,4080.0 C 1309.0,3649.0 1314.0,3544.0 1327.0,3491.0 L 1344.0,3428.0 L 1394.0,3434.0 C 1439.0,3440.0 1450.0,3446.0 1490.0,3490.0 C 1532.0,3537.0 1538.0,3540.0 1581.0,3540.0 C 1619.0,3540.0 1637.0,3548.0 1695.0,3588.0 C 1759.0,3632.0 1765.0,3639.0 1786.0,3700.0 C 1798.0,3736.0 1809.0,3762.0 1809.0,3759.0 C 1810.0,3756.0 1821.0,3671.0 1834.0,3569.0 C 1848.0,3468.0 1866.0,3366.0 1874.0,3342.0 C 1894.0,3287.0 1989.0,3177.0 2055.0,3134.0 C 2083.0,3115.0 2134.0,3074.0 2169.0,3042.0 L 2233.0,2983.0 L 2221.0,2859.0 C 2211.0,2764.0 2197.0,2696.0 2160.0,2573.0 L 2111.0,2410.0 L 2167.0,2274.0 L 2223.0,2138.0 L 2434.0,1943.0 L 2646.0,1748.0 L 2865.0,1405.0 L 3085.0,1062.0 L 4035.0,626.0 L 4985.0,190.0 L 6336.0,95.0 C 7079.0,43.0 7694.0,0.0 7702.0,0.0 C 7729.0,0.0 7732.0,72.0 7735.0,640.0 L 7737.0,1185.0 L 7792.0,1410.0 C 7836.0,1590.0 7849.0,1658.0 7853.0,1750.0 C 7858.0,1848.0 7867.0,1890.0 7910.0,2037.0 C 7937.0,2131.0 7969.0,2266.0 7980.0,2337.0 C 7990.0,2407.0 8030.0,2601.0 8066.0,2768.0 L 8134.0,3072.0 L 8177.0,3107.0 C 8216.0,3139.0 8222.0,3141.0 8248.0,3131.0 C 8265.0,3124.0 8284.0,3104.0 8294.0,3083.0 C 8310.0,3049.0 8312.0,3048.0 8358.0,3053.0 C 8384.0,3055.0 8423.0,3065.0 8445.0,3073.0 C 8485.0,3089.0 8604.0,3095.0 8648.0,3084.0 C 8666.0,3079.0 8670.0,3071.0 8670.0,3041.0 C 8670.0,2985.0 8712.0,2904.0 8745.0,2896.0 C 8760.0,2892.0 8774.0,2891.0 8776.0,2893.0 C 8778.0,2895.0 8818.0,3342.0 8864.0,3886.0 L 8947.0,4875.0 L 8802.0,5245.0 L 8657.0,5615.0 L 8677.0,5985.0 L 8697.0,6355.0 L 8806.0,6743.0 L 8914.0,7132.0 L 8882.0,7551.0 L 8850.0,7971.0 L 8890.0,8051.0 C 8919.0,8107.0 8927.0,8132.0 8918.0,8135.0 C 8911.0,8137.0 8811.0,8164.0 8695.0,8194.0 C 8496.0,8247.0 8485.0,8249.0 8461.0,8233.0 C 8447.0,8224.0 8435.0,8221.0 8433.0,8226.0 C 8415.0,8276.0 8298.0,8516.0 8290.0,8518.0 C 8285.0,8520.0 8147.0,8474.0 7985.0,8415.0 C 7782.0,8341.0 7686.0,8311.0 7677.0,8317.0 C 7671.0,8323.0 7117.0,8758.0 6447.0,9284.0 C 5777.0,9810.0 5222.0,10240.0 5212.0,10239.0 C 5203.0,10238.0 5071.0,10213.0 4920.0,10182.0" fill="pink"/>
</svg>

<?xml version="1.0" standalone="no"?>
<!DOCTYPE svg PUBLIC "-//W3C//DTD SVG 20010904//EN"
 "http://www.w3.org/TR/2001/REC-SVG-20010904/DTD/svg10.dtd">
<svg version="1.0" xmlns="http://www.w3.org/2000/svg"
 width="1024.000000pt" height="1024.000000pt" viewBox="0 0 1024.000000 1024.000000"
 preserveAspectRatio="xMidYMid meet">
<metadata>
Created by potrace 1.10, written by Peter Selinger 2001-2011
</metadata>
<g transform="translate(0.000000,1024.000000) scale(0.100000,-0.100000)"
fill="#000000" stroke="none">
<path d="M4920 10182 l-275 -57 -177 -215 -176 -215 -400 -275 -400 -274 -162
-436 -162 -435 -142 -245 c-79 -135 -239 -411 -356 -613 -195 -338 -218 -373
-274 -422 -34 -29 -140 -120 -236 -202 -168 -143 -178 -153 -244 -258 -50 -81
-98 -140 -178 -221 l-109 -111 -71 -189 c-132 -353 -131 -351 -202 -909 l-64
-500 9 -525 c8 -431 13 -536 26 -589 l17 -63 50 6 c45 6 56 12 96 56 42 47 48
50 91 50 38 0 56 8 114 48 64 44 70 51 91 112 12 36 23 62 23 59 1 -3 12 -88
25 -190 14 -101 32 -203 40 -227 20 -55 115 -165 181 -208 28 -19 79 -60 114
-92 l64 -59 -12 -124 c-10 -95 -24 -163 -61 -286 l-49 -163 56 -136 56 -136
211 -195 212 -195 219 -343 220 -343 950 -436 950 -436 1351 -95 c743 -52
1358 -95 1366 -95 27 0 30 72 33 640 l2 545 55 225 c44 180 57 248 61 340 5
98 14 140 57 287 27 94 59 229 70 300 10 70 50 264 86 431 l68 304 43 35 c39
32 45 34 71 24 17 -7 36 -27 46 -48 16 -34 18 -35 64 -30 26 2 65 12 87 20 40
16 159 22 203 11 18 -5 22 -13 22 -43 0 -56 42 -137 75 -145 15 -4 29 -5 31
-3 2 2 42 449 88 993 l83 989 -145 370 -145 370 20 370 20 370 109 388 108
389 -32 419 -32 420 40 80 c29 56 37 81 28 84 -7 2 -107 29 -223 59 -199 53
-210 55 -234 39 -14 -9 -26 -12 -28 -7 -18 50 -135 290 -143 292 -5 2 -143
-44 -305 -103 -203 -74 -299 -104 -308 -98 -6 6 -560 441 -1230 967 -670 526
-1225 956 -1235 955 -9 -1 -141 -26 -292 -57z"/>
</g>
</svg>
